X:13
T:Feriä i dä Bärgä. Natur-Juiz. 1999  C-Dur  ABC
T:Margrit Spichtig-Hofer (6.9.1962)
T:Dirigenten-Notiz  Edi Gasser
C:Unterwalden (CH)
%%partsbox
%P:ABC
R:Naturjodel
M:3/4
L:1/4
K:C
[P:A] EEG | D>EF | D>DG | E>FG | f>ed | e>dc | d>Gd | e2c | 
f>ed | e>dc | d>G B/d/ | c3 | EEG | D>EF | D>DG | E>FG | 
f>ed | e>dc | d>Gd | e2c | f>ed | e>dc | d>G B/d/ | c2z || 
L:1/4
M:2/4
[P:B] G/E/  | D>E | FG | E>F | Gc | B/>B/ B/c/ | de | ce/c/ | GG/E/ | D>E | FG | E>F | 
Gc | B/>/B/ B/c/ | de | (c2 | c)G/E/ | D>E | FG | E>F | Gc | B/>B/ B/c/ | 
de | ce/c/ | GG/E/ | D>E | FG | E>F | Gc | B/>B/ B/c/ | de | (c2 | c2) ||  
L:1/4
M:2/4
[P:C] c(c | c/)c/ d/e/ | A(A | A/)A/ d/f/ | e2 | d2 | c>A | G2 | c(c | c/)c/ d/e/ | 
A(A | A/)A/ d/f/ | e2 | d2 | (c2 | c2) | e(e | e/)e/ f/g/ | f(f | f/)f/ g/a/ | g2 | f2 | 
e2 | c2 | e(e | e/)e/ f/g/ | f(f | f/)f/ g/a/ | g2 | f2 |  (e2 | e2) |] 
W:
%W:Reihenfolge: A - B - C
W:
W:notiert Edi Gasser. Angaben: Margrit Spichtig
W:UJV-Naturjodelsammlung: Code-Nr: 50-07
W:http://www.naturjodler.ch/code 50.htm  (with AUDIO )
%Juni 21, 2018

